X:1
T: Forest Flower Waltz
I:
C: W-23
M: 3/4
L: 1/4
Z:
R: waltz
K: Bm
F/F/|: "Bm"FBc| dcB| [B3f3]| [B2f2] F/F/| FBc| dcB| "Em"[B3g3]| [B3g3]|
efg| gfe| ed>e| "Bm"f3| "F#"F=F^F| "Em"d2c| "Bm"B3-| B2:|
|:\
b/_b/| "Bm"bf>=f| ^fd>c| dB>_B| =Bdf| "Em"[B3g3]| [Bg]ag| "Bm"[B3f3]| [B3f3]|
"Em"fe>_e| =e3| "Bm"ed>c| d3| "F#"F=F^F| "Em"d2c| "Bm"B3-|1 B2:|2 B|]
|:\
b_b| "A"[c3a3]| abg| "D"[d3f3]| fgf| "A"[c3e3]| efe| "D"[F3d3]| ded|
   "A"[E3c3]| cdc| "Bm"[D3B3]| [D3B3]| "F#m"F=F^F| "Em"d2 c| "Bm"B3-|1 B :|2 B2|]
%
